!!!OTL: Suwugeng
!!!ARE: Asia, China,ÿQinghai, Dongbu)
!! I, 247
!!!SCT: C1435
!!!YEM: Copyright 1995, estate of Helmut Schaffrath.
**kern
*ICvox
*Ivox
*M2/4
*k[f#]
*G:
{8a
8a
8a
8dd
=1
4.cc
8b
=2
8a
8a
8a
8dd
=3
2cc}
=4
{8dd
4cc
8dd
=5
8ee
8aa
8gg
8ee
=6
8dd
8cc
8dd
8ee
=7
8dd
8cc
4a}
=8
{8a
8e
4a
=9
8a
4dd
8b
=10
4a
4g
=11
8a
16g
16f#
4e}
=12
{8a
8e
8.a
16b
=13
8g
16f#
16e
4d
=14
8e
16d
16e
8g
16f#
16e
=15
2d}
==
!!!AGN: Xiaodiao. Nannuqing
!!!ONB: ESAC (Essen Associative Code) Database: HUANG
!!!AMT: simple duple
!!!AIN: vox
!!!EED: Helmut Schaffrath
!!!EEV: 1.0
*-
!!!OTL: Anning minge
!!!ARE: Asia, China,ÿYunnan, Anning
!! II, 87
!!!SCT: C1498
!!!YEM: Copyright 1995, estate of Helmut Schaffrath.
**kern
*ICvox
*Ivox
*M3/4
*k[b-e-a-]
*E-:
{4ff
8ff
8gg
4ff
=1
8ff
8ee-
4cc
4b-
=2
4ff
4ff
8cc
8b-
=3
4b-
2f}
=4
{4f
4ff
4ee-
=5
8cc
8b-
4b-
4f
=6
4cc
4b-
8f
8e-
=7
2.f}
=8
{4ff
8ff
8bb-
8gg
8ff
=9
8ff
8ee-
4ee-
4cc
=10
4ff
4ff
8cc
8b-
=11
4b-
2f}
=12
{4f
4ff
4ee-
=13
8cc
8b-
4b-
4f
=14
4cc
4b-
8f
8e-
=15
2.f}
==
!!!AGN: Xiaodiao
!!!AMT: simple triple
!!!AIN: vox
!!!EED: Helmut Schaffrath
!!!EEV: 1.0
*-
